X: 20192
M: C
L: 1/8
K: D
d3A F2A2 | E4 z2A2 |\
^G3G A2B2 | c3B A2A2 |\
=G2A2 F2A2 | E3F E2A2 |
d3c A2d>e | d4 z2(AG) |\
d3B A>G F>E | D6 |]


